X:153
T:Waltzes #3. Le4.153
Q:3/4=50
L:1/4
B:L.Leadley MS#4 c1850
Z:vmp.Mike Hicken 2016 www.village-music-project.org.uk
M:3/4
K:C
P:3
!p!^d|e3-|ez^f|g3-|gef|gab|c'd'c'|b3-|bc'b|
a3-|aba|g3-|gag|^fag|=fag|e3-|ez :|
|:!p! e|(3e/f/e/ dG/z/|Gze|(3e/f/e/ dG|G(^F>G)|G (B>c)|c(^d>!<(!e)|e (^f>g)|!<)!g (a>g)|
(3e/f/e/ dG |Gze|(3e/f/e/ dG|G(^f>g)|!f!g (^f>g)|a (^g>a)|b (a>b)|c' z :|

